img/netflix-wordmark 1.svg

<svg width="118" height="32" viewBox="0 0 118 32" fill="none" xmlns="http://www.w3.org/2000/svg">
<g clip-path="url(#clip0_98_1283)">
<path d="M16.2253 29.9374C14.4503 30.2502 12.644 30.3439 10.7755 30.5937L5.07619 13.8438V31.3126C3.30112 31.5 1.68173 31.75 0 32V0H4.73383L11.2114 18.1565V0H16.2253V29.9374ZM26.0354 11.7188C27.9663 11.7188 30.9249 11.625 32.6999 11.625V16.6249C30.4887 16.6249 27.904 16.6249 26.0354 16.7186V24.1563C28.9629 23.9688 31.8903 23.7186 34.8487 23.6248V28.4371L21.0524 29.531V0H34.8487V5.00001H26.0354V11.7188ZM53.3786 5.00012H48.209V28.0001C46.5273 28.0001 44.8455 28.0001 43.2264 28.0624V5.00012H38.0567V0H53.3789L53.3786 5.00012ZM61.4757 11.3751H68.2961V16.375H61.4757V27.7189H56.586V0H70.5072V5.00001H61.4757V11.3751ZM78.6042 23.3437C81.4383 23.4061 84.3033 23.6252 87.0751 23.7812V28.7187C82.6218 28.4373 78.1683 28.1564 73.6215 28.0624V0H78.6042V23.3437ZM91.2793 29.0625C92.8676 29.1564 94.5493 29.2502 96.1687 29.4374V0H91.2793V29.0625ZM118 0L111.678 15.2188L118 32C116.131 31.75 114.263 31.4062 112.394 31.0937L108.813 21.8439L105.169 30.3439C103.363 30.0311 101.619 29.9374 99.8129 29.6874L106.228 15.0311L100.436 0H105.792L109.062 8.40627L112.55 0H118Z" fill="#FAD9C4"/>
</g>
<defs>
<clipPath id="clip0_98_1283">
<rect width="118" height="32" fill="white"/>
</clipPath>
</defs>
</svg>

<svg xmlns="http://www.w3.org/2000/svg" width="118" height="32" fill="none"><g clip-path="url(#a)"><path fill="#FAD9C4" d="M16.225 29.937c-1.775.313-3.581.407-5.45.657l-5.699-16.75v17.469C3.301 31.5 1.682 31.75 0 32V0h4.734l6.477 18.157V0h5.014zm9.81-18.218c1.931 0 4.89-.094 6.665-.094v5c-2.211 0-4.796 0-6.665.094v7.437c2.928-.187 5.855-.437 8.814-.531v4.812l-13.797 1.094V0H34.85v5h-8.814zM53.38 5h-5.17v23c-1.682 0-3.364 0-4.983.062V5h-5.17V0H53.38zm8.097 6.375h6.82v5h-6.82v11.344h-4.89V0h13.921v5h-9.031zm17.128 11.969c2.834.062 5.7.281 8.471.437v4.938c-4.453-.282-8.907-.563-13.454-.657V0h4.983zm12.675 5.718c1.589.094 3.27.188 4.89.375V0h-4.89zM118 0l-6.322 15.219L118 32c-1.869-.25-3.737-.594-5.606-.906l-3.581-9.25-3.644 8.5c-1.806-.313-3.55-.407-5.356-.657l6.415-14.656L100.436 0h5.356l3.27 8.406L112.55 0z"/></g><defs><clipPath id="a"><path fill="#fff" d="M0 0h118v32H0z"/></clipPath></defs></svg>
